X:1
T:Rally for the Right
T:Rally for the Right
T:Oscar Williams
T:Armer Killian & Glenn Greenwood, 1918
T:Public Domain Courtesy of the Cyber Hymnal™
T:Public Domain Courtesy of the Cyber Hymnal™
C:Oscar Williams
Z:Public Domain
Z:Courtesy of the Cyber Hymnal™
%%score ( 1 2 ) ( 3 4 )
L:1/8
Q:1/4=95
M:4/4
K:Db
V:1 treble 
V:2 treble 
V:3 bass 
V:4 bass 
V:1
 [FA]>[FA] [FA]>[GB] [FA]2 [DF]2 | [Fd]>[Fd] [Fd]>[Fd] [Ad]2 [GB]2 | %2
w: 1.~Ral- ly- ing a- round the|ban- ner of the Sav- ior,|
w: 2.~Fol- low- ing His foot- steps,|ev- er march- ing on- ward,|
w: 3.~Chris- tians, be not i- dle,|you are great- ly need- ed,|
 [Gc]>[Gc] [Gc]>[Gc] [Gc]2 [GB]>[Gc] | [Fd]>[Fd] [Fd]>[GB] [FA]4 | %4
w: Sol- diers, fall in line, and make|rea- dy for the fight;|
w: Fear- less tho’ you see that the|en- e- my’s in sight;|
w: To ad- vance the cause of the|pre- cious Lord of light;|
 [FA]>[FA] [FA]>[GB] [FA]2 [DF]2 | [Fd]>[Fd] [Fd]>[Fd] [Ad]2 [GB]2 | %6
w: ’Gainst the host of sin, tho’|fierce may be the con- flict,|
w: Press- ing to the front ranks|in this might- y ar- my,|
w: Ma- ny are the lost ones,|wan- dering now and dy- ing,|
 [Gc]>[Gc] [Gc]>[Gc] [Gc]2 [GB]>[Gc] | [Fd]>[Fd] [Gd]>[Gd] [Fd]4 ||"^Refrain" d6 [FA]2 | %9
w: Brave- ly take your stand for the|bless- èd Lord and right.||
w: Be a val- iant sol- dier for|Je- sus and the right.|Ral- ly,|
w: Ral- ly for the right, won’t you|ral- ly for the right?||
 [GB]>[GB] [GB]>[GB] [GB]2 z2 | c6 (Bc) | [Fd]>[Fd] [Gd]>[GB] [FA]2 z2 | d6 [FA]2 | %13
w: ||||
w: for the cause of right;|Ral- ly, *|till we win the fight;|Vic- tory|
w: ||||
 [GB]>[GB] [GB]>[GB] [GB]2 z2 | [Gc]>[Gc] [Gc]>[Gc] [Gc]2 [GB]>[Gc] | [Fd]2 [Gd]2 [Fd]4 |] %16
w: |||
w: in His name we’ll sing,|When the bat- tle’s won for our|bless- èd king.|
w: |||
V:2
 x8 | x8 | x8 | x8 | x8 | x8 | x8 | x8 || (A2 A2 F2) x2 | x8 | (G2 G2 G2) G2 | x8 | (A2 A2 F2) x2 | %13
 x8 | x8 | x8 |] %16
V:3
 [D,D]>[D,D] [D,D]>[D,D] [D,D]2 [D,A,]2 | [D,A,]>[D,A,] [D,A,]>[D,A,] [F,D]2 [F,D]2 | %2
w: ~ ~ ~ ~ ~ ~|~ ~ ~ ~ ~ ~|
 [E,E]>[E,E] [E,E]>[E,E] [A,E]2 [A,C]>A, | [D,A,]>[D,A,] [D,B,]>[D,D] [D,D]4 | %4
w: ~ ~ ~ ~ ~ ~ ~|~ ~ ~ ~ ~|
 [D,D]>[D,D] [D,D]>[D,D] [D,D]2 [D,A,]2 | [D,A,]>[D,A,] [D,A,]>[D,A,] [F,D]2 [G,D]2 | %6
w: ~ ~ ~ ~ ~ ~|~ ~ ~ ~ ~ ~|
 [G,E]>[G,E] [G,E]>[G,E] [A,E]2 [A,C]>A, | [D,A,]>[D,A,] [D,B,]>[D,B,] [D,A,]4 || %8
w: ~ ~ ~ ~ ~ ~ ~|~ ~ ~ ~ ~|
 [D,F]2 [D,F]2 [D,D]2 [D,D]2 | [G,D]>[G,D] [G,D]>[G,D] [G,D]2 F,2 | [E,E]2 [E,E]2 [A,E]2 [A,E]2 | %11
w: Ral- ly, ral- ly,|~ ~ ~ ~ ~ ~|Ral- ly, ral- ly,|
 [D,D]>[D,A,] [D,B,]>[D,D] [D,D]2 D2 | [D,F]2 [D,F]2 [D,D]2 [D,D]2 | %13
w: ~ ~ ~ ~ Then shout-|ing vic- tory *|
 [G,D]>[G,D] [G,D]>[G,D] [G,D]2 F,2 | [E,E]>[E,E] [E,E]>[E,E] [A,E]2 [A,C]>A, | %15
w: ||
 [D,A,]2 [D,B,]2 [D,A,]4 |] %16
w: |
V:4
 x8 | x8 | x15/2 A,/ | x8 | x8 | x8 | x15/2 A,/ | x8 || x8 | x8 | x8 | x8 | x8 | x8 | x15/2 A,/ | %15
 x8 |] %16

